common/src/main/resources/icons/actions/quickList.svg

<svg xmlns="http://www.w3.org/2000/svg" width="16" height="16" fill="#2979FF" data-big="true" viewBox="0 0 24 24"><path d="M21 19v-2H8v2zm0-6v-2H8v2zM8 7h13V5H8zM4 5v2h2V5zM3 5a1 1 0 0 1 1-1h2a1 1 0 0 1 1 1v2a1 1 0 0 1-1 1H4a1 1 0 0 1-1-1zm1 6v2h2v-2zm-1 0a1 1 0 0 1 1-1h2a1 1 0 0 1 1 1v2a1 1 0 0 1-1 1H4a1 1 0 0 1-1-1zm1 6v2h2v-2zm-1 0a1 1 0 0 1 1-1h2a1 1 0 0 1 1 1v2a1 1 0 0 1-1 1H4a1 1 0 0 1-1-1z"/></svg>

<!--
  - The MIT License (MIT)
  -
  - Copyright (c) 2015-2024 Elior "Mallowigi" Boukhobza
  -
  - Permission is hereby granted, free of charge, to any person obtaining a copy
  - of this software and associated documentation files (the "Software"), to deal
  - in the Software without restriction, including without limitation the rights
  - to use, copy, modify, merge, publish, distribute, sublicense, and/or sell
  - copies of the Software, and to permit persons to whom the Software is
  - furnished to do so, subject to the following conditions:
  -
  - The above copyright notice and this permission notice shall be included in all
  - copies or substantial portions of the Software.
  -
  - THE SOFTWARE IS PROVIDED "AS IS", WITHOUT WARRANTY OF ANY KIND, EXPRESS OR
  - IMPLIED, INCLUDING BUT NOT LIMITED TO THE WARRANTIES OF MERCHANTABILITY,
  - FITNESS FOR A PARTICULAR PURPOSE AND NONINFRINGEMENT. IN NO EVENT SHALL THE
  - AUTHORS OR COPYRIGHT HOLDERS BE LIABLE FOR ANY CLAIM, DAMAGES OR OTHER
  - LIABILITY, WHETHER IN AN ACTION OF CONTRACT, TORT OR OTHERWISE, ARISING FROM,
  - OUT OF OR IN CONNECTION WITH THE SOFTWARE OR THE USE OR OTHER DEALINGS IN THE
  - SOFTWARE.
  -->


<svg data-big="true" xmlns="http://www.w3.org/2000/svg" version="1.1" width="16px" height="16px" fill="#2979FF"
     viewBox="0 0 24 24">
  <path
    d="M21,19V17H8V19H21M21,13V11H8V13H21M8,7H21V5H8V7M4,5V7H6V5H4M3,5A1,1 0 0,1 4,4H6A1,1 0 0,1 7,5V7A1,1 0 0,1 6,8H4A1,1 0 0,1 3,7V5M4,11V13H6V11H4M3,11A1,1 0 0,1 4,10H6A1,1 0 0,1 7,11V13A1,1 0 0,1 6,14H4A1,1 0 0,1 3,13V11M4,17V19H6V17H4M3,17A1,1 0 0,1 4,16H6A1,1 0 0,1 7,17V19A1,1 0 0,1 6,20H4A1,1 0 0,1 3,19V17Z"/>
</svg>
